X:1
T:Title
%%score { 1 | 2 }
L:1/8
M:6/8
K:G
V:1 treble nm="Grand Piano"
V:2 treble 
V:1
 z3 z2[Q:1/4=100] G | B2 B B2 [FA] | [FA]2 G G2 G | [FA]2 [GB] [Ac]2 [GB] | [GB]3 [FA]2 D | %5
 B2 B B2 [FA] | [FA]2 G G2 G | [FA]2 [GB] [Ac]2 [A,DF] |[M:5/8] [CDA]3 [B,DG]2 |[M:1/8] d | %10
[M:3/4] d2 B d2 e | d2 B [FA]2 [FA] | B2 G d2 B | [GB]3 [FA]2 B | d2 B d2 e | d2 B [FA]2 [FA] | %16
 B2 G d2 B |[M:5/8] [CFA]3 [B,DG]2 |] %18
V:2
 z3 z2 [G,B,] | [G,DG]2 [G,DG] [G,DG]2[K:bass] [D,C] | [D,C]2 [G,B,] [G,B,]2 [G,B,] | %3
 [D,D]2 [D,D] [D,D]2 [D,D] | [D,D]3 [D,D]2 [G,B,] | [G,DG]2 [G,DG] [G,DG]2[K:bass] [D,C] | %6
 [D,C]2 [G,B,] [G,B,]2 [G,B,] | [D,D]2 [D,D] [D,D]2 D, |[M:5/8] D,3 G,,2 | %9
[M:1/8][K:treble] [G,B,G] |[M:3/4] [G,B,G]2 [G,DG] [G,B,G]2 [G,CG] | %11
 [G,B,G]2 [G,DG][K:bass] [D,D]2 [D,D] | [G,DG]2 [G,B,] [G,B,G]2 [G,DG] | %13
 [D,D]3 [D,D]2[K:treble] [G,DG] | [G,B,G]2 [G,DG] [G,B,G]2 [G,CG] | %15
 [G,B,G]2 [G,DG][K:bass] [D,D]2 [D,D] | [G,DG]2 [G,B,] [G,B,G]2 [G,DG] |[M:5/8][K:bass] D,3 G,,2 |] %18

